X:1
T:Ayres
T:Ayres
T:Ayres
T:from: "Almaine for 3 Viols" Arrangement for Woodwind Trio 
T:Richard Deering (c.1580-1630) arr. by Felix Scharpf 
T:twoflutes 2020 / Felix Scharpf / https://commons.wikimedia.org/wiki/File:Richard_Dering_Cantica_Sacra_1662.jpg
T:twoflutes 2020 / Felix Scharpf / https://commons.wikimedia.org/wiki/File:Richard_Dering_Cantica_Sacra_1662.jpg
T:twoflutes 2020 / Felix Scharpf / https://commons.wikimedia.org/wiki/File:Richard_Dering_Cantica_Sacra_1662.jpg
T:twoflutes 2020 / Felix Scharpf / https://commons.wikimedia.org/wiki/File:Richard_Dering_Cantica_Sacra_1662.jpg
C:Richard Deering (1580-1630)
Z:twoflutes 2020 / Felix Scharpf / https://commons.wikimedia.org/wiki/File:Richard_Dering_Cantica_Sacra_1662.jpg
%%score [ 1 2 3 ]
L:1/8
Q:1/2=70
M:2/2
K:Bb
V:1 treble nm="Flute" snm="Fl."
V:2 treble nm="Oboe" snm="Ob."
V:3 bass nm="Bassoon" snm="Bs."
V:1
!mf! (a3 b) (c'd')c'b | a4- a(abc') | d'2 (c'b) (a>c') (P=ba/b/ | c'8) | z8 | z8 | z8 | %7
 z2 z d' (c'2 b2 | a2) f2 (de) (f2 | =e2) z2 (fg) a2 | z4 (d=efe) | (d2 c2) (dc) d2 | (=efga) b4 | %13
 (ag) f2 (a2 b2 | c')c (f4 P=e2 | f8) :: c4 c2 d2 | (P=e3 d/e/) .f.c.f._e | (Pd3 e/f/) .g.d.g.f | %19
 .=e f2 e f2 F2 | z8 | (f2 =e2) (dc) d2 | (g3 f/g/) .=e.c e2 | f4 z4 | (Pf3 e/f/) .d.B .FG/A/ | %25
 B2 (Pb3 a/b/) .gf/g/ | .ag/a/ f2 z2 f2- | fe/f/ .d.B .d.A .BA/B/ | c4 (c'>b) (a>g) | %29
 (f>e) d2 (ec) e2 | f2 (d'3 c' ba | gaba gf Pg2 | a8) :: %33
[M:3/2][Q:1/2=180]"^faster" !>!.a4 .a4 .a4 | (!>!g6 a2 f4) | (!>!=e6 f2 d4) | (c6 d2 B2 c2) | %37
!>(! (A2 B2 c4 d4!>)! |!mp! =e12) |!mf! !>!.g4 (g4 a4) | (!>!b6 c'2 b4) | (b4 a6 g2) | %42
 g8 (c'2 b2) | (!>!.a4 f4 b4) | (!>!.g4 a4 f4) | (=e2 f2 d4 c4) | !>!.f4 (f4 g4) | %47
!>(! (a6 b2 a2 g2) |1 !>!a4 (g6 f2!>)! |!mp! f12) :|2 %50
[Q:1/2=100]"_rit."!>(! !>!a4[Q:1/2=90] (Pg6[Q:1/2=60] f2!>)! |!mp! !fermata!f12) |] %52
V:2
 z8 | z8 | z8 | z4 z2!mf! g2 | (g>f) (g>a) (g3 f) | =e4- e(efg) | (a>b) (g>a) f2 (ga) | %7
 b2 f2 f2 (d=e) | f3 c' (b2 a2) | (ga) b2 z2 (cd) | (ef) g2 (f=edc) | (=B2 c4) B2 | (cd=ef) (dcde | %13
 fg a2) (cagf) | =e2 (a2 g4 | a8) :: z8 | z8 | z8 | z8 | (Pc'3 b/c'/) .a.f.b.c' | %21
 (d'2 c'3) c' =b2 | c'4 z4 | (Pc'3 b/c'/) .a.f Pa2 | b4 f3 e/f/ | .d.B d2 (e3 d/e/) | %26
 f2 .cB/c/ .A.F A2 | B4 z2 .gf/g/ | .=e.c (c'>b) (a>g) (f>_e) | d2 (ba) g2 (c'b) | a2 (b3 a) (gf) | %31
 (=ec) (f4 Pe2 | f8) ::[M:3/2] !>!.f4 .f4 .f4 | (!>!=e6 f2 d4) | !>!c4 c'4 b4 | (a2 g2 f4 d2 =e2) | %37
!>(! (f2 g2 a4 b4!>)! |!mp! c'12) |!mf! !>!.=e4 (e4 f4) | (!>!g6 a2 g4) | (g4 f4 d4) | d12 | %43
 (!>!.f4 d4 g4) | (!>!.c4 c4 =B4) | (c4 =B4 c4) | !>!.d4 c4 (d2 =e2) |!>(! (f6 g2 f2 =e2) |1 %48
 !>!f4 (=e6 de!>)! |!mp! f12) :|2!>(! !>!f4 (P=e6 de!>)! |!mp! !fermata!f12) |] %52
V:3
!mf! F,4 F,2 C,2 | F,4- F,(F,D,C,) | (B,,2 C,2) (F,2 D,2 | C,6) C,2 | C,4 C,2 G,2 | %5
 C,4- C,(CB,G,) | (F,2 E,2 D,2 C,2 | B,,2) (B,2 A,2 G,2 | F,2) (A,2 G,2 F,2) | %9
 C2 (.G,.A,) B,2 F,2 | C2 (.G,.A,) B,2 F,2 | (G,2 A,2) G,4 | C,4 (.G,.A,.B,.C | %13
 .D.E.F).F, F2 (.E.D) | C2 (.A,.B, C2) C,2 | F,8 :: F,4 =E,2 D,2 | C,3 C, A,,2 F,,2 | %18
 .B,,.F,.B,.A, .G,.F,.E,.D, | (C,B,,) C,2 F,4 | F,4 F,2 .D,.C, | B,,2 C,2 G,2 G,,2 | %22
 C,4 (C3 B,/C/) | .A, F,3 (F3 E/F/) | .D.B, .F,G,/A,/ B,2 B,,2 | (B,3 A,/B,/) G,2 C2 | %26
 F,4 (F,3 E,/F,/) | .D,.B,, B,2 .G,.F, G,2 | C,4 F,4 | B,4 C4 | .F,2 .B,,2 B,4 | (.C2 .B,2 C4 | %32
 F,8) ::[M:3/2] !>!.F,4 .F,4 .F,4 | C8 .C4 | A,8 .B,4 | F,8 .G,4 |!>(! (F,6 E,2 D,4)!>)! | %38
!mp! C,12 |!mf! .C4 .C4 .A,4 | G,8 .G,4 | .G,4 C,8 | (!>!G,6 F,2 =E,4) | .F,4 .B,4 .G,4 | %44
 .=E,4 .F,4 .D,4 | .C,4 .G,4 .C,4 | !>!.B,,4 .A,,4 .G,,4 |!>(! F,,8 .F,4 |1 .F,4 (C,8!>)! | %49
!mp! F,12) :|2!>(! .F,4 (C,8!>)! |!mp! !fermata!F,12) |] %52

